src/assets/icons/remotes/pcloud.svg

<svg width="24" height="24" viewBox="0 0 24 24" fill="currentColor" xmlns="http://www.w3.org/2000/svg">
    <path
        d="M12 5.59375C9.99602 5.59375 8.20801 6.52326 7.03359 7.97107C7.03559 7.97147 7.03785 7.97185 7.03984 7.97185C6.22344 8.97963 5.70033 10.2377 5.61953 11.6231C5.60713 11.8437 5.42527 12.0077 5.19687 11.9984C4.97648 11.9856 4.80789 11.7964 4.82109 11.5754C4.88229 10.5231 5.17236 9.53734 5.63516 8.65768C5.64555 8.63445 5.65086 8.61368 5.66406 8.58886C3.55846 9.17984 2 11.1204 2 13.4014C2 16.1613 4.2428 18.4063 7 18.4063H18.4C20.3852 18.4063 22 16.7899 22 14.8027C22 14.0464 21.7561 13.3228 21.3281 12.7226C21.1413 13.1626 20.8642 13.5645 20.507 13.8956C20.4298 13.9669 20.3323 14.002 20.2352 14.002C20.1275 14.002 20.0202 13.959 19.9414 13.8737C19.7914 13.7111 19.8009 13.4581 19.9633 13.3075C20.5029 12.8079 20.8 12.1301 20.8 11.3994C20.8 9.89836 19.6931 8.65542 18.2539 8.43481C18.2507 8.43921 18.2509 8.44291 18.2477 8.44732C18.778 9.37902 19.1125 10.4386 19.1789 11.5761C19.1917 11.7971 19.0231 11.986 18.8031 11.9992C18.7947 11.9996 18.7869 12 18.7789 12C18.5689 12 18.3925 11.8357 18.3805 11.6231C18.3117 10.4407 17.9173 9.35257 17.2977 8.43168C17.1996 8.28633 17.1022 8.13966 16.993 8.00313C15.819 6.5365 14.0188 5.59375 12 5.59375ZM12 7.19531C14.6468 7.19531 16.8 9.35061 16.8 12C16.8 14.6494 14.6468 16.8047 12 16.8047C9.3532 16.8047 7.2 14.6494 7.2 12C7.2 9.35061 9.3532 7.19531 12 7.19531ZM12 7.99609C9.79441 7.99609 8 9.79227 8 12C8 14.2077 9.79441 16.0039 12 16.0039C14.2056 16.0039 16 14.2077 16 12C16 9.79227 14.2056 7.99609 12 7.99609ZM10.6 9.59766H12.6C13.5924 9.59766 14.4 10.4061 14.4 11.3994C14.4 12.3928 13.5924 13.2012 12.6 13.2012H11.2V14.2021C11.2 14.5337 10.9312 14.8027 10.6 14.8027C10.2688 14.8027 10 14.5337 10 14.2021V10.1982C10 9.86672 10.2688 9.59766 10.6 9.59766ZM11.2 10.7988V12H12.6C12.9308 12 13.2 11.7305 13.2 11.3994C13.2 11.0683 12.9308 10.7988 12.6 10.7988H11.2Z" />
</svg>

<svg xmlns="http://www.w3.org/2000/svg" width="24" height="24" fill="currentColor" viewBox="0 0 24 24"><path d="M12 5.594c-2.004 0-3.792.93-4.966 2.377h.006a6.37 6.37 0 0 0-1.42 3.652.4.4 0 1 1-.798-.048 7.1 7.1 0 0 1 .813-2.917c.01-.024.016-.044.03-.07C3.557 9.18 2 11.12 2 13.402a5.01 5.01 0 0 0 5 5.005h11.4c1.985 0 3.6-1.616 3.6-3.603 0-.757-.244-1.48-.672-2.08a3.4 3.4 0 0 1-.821 1.173.4.4 0 0 1-.566-.022.4.4 0 0 1 .022-.567c.54-.5.837-1.177.837-1.908a3.004 3.004 0 0 0-2.546-2.964l-.006.012a7.15 7.15 0 0 1 .93 3.13.4.4 0 0 1-.375.422h-.023a.4.4 0 0 1-.398-.377 6.36 6.36 0 0 0-1.083-3.191c-.098-.146-.196-.292-.305-.429A6.38 6.38 0 0 0 12 5.593m0 1.601c2.647 0 4.8 2.156 4.8 4.805a4.81 4.81 0 0 1-4.8 4.805A4.81 4.81 0 0 1 7.2 12 4.81 4.81 0 0 1 12 7.195m0 .801c-2.206 0-4 1.796-4 4.004a4.007 4.007 0 0 0 4 4.004c2.206 0 4-1.796 4-4.004a4.007 4.007 0 0 0-4-4.004m-1.4 1.602h2c.992 0 1.8.808 1.8 1.801 0 .994-.808 1.802-1.8 1.802h-1.4v1.001a.6.6 0 1 1-1.2 0v-4.004a.6.6 0 0 1 .6-.6m.6 1.2V12h1.4a.601.601 0 0 0 0-1.201z"/></svg>
